!!!COM:	Josquin des Prez
!!!CDT:	~1450-1521/08/27
!!!OPR:	Missa Fortuna desperata
!!!ONM:	3
!!!OTL:	Credo
!!!AGN:	Mass; Credo
!!!SCT:	NJE 8.2
!!!SCA:	New Josquin Edition 8.2
!!!voices: 4
!!!voices-OPR:	4
**kern	**kern	**kern	**kern
*staff4	*staff3	*staff2	*staff1
*Ivox	*Ivox	*Ivox	*Ivox
*I"Bassus	*I"Tenor	*I"Altus	*I"Superius
*I'B	*I'T	*I'A	*I'S
*>[A,B]	*>[A,B]	*>[A,B]	*>[A,B]
*>Patrem[A]	*>Patrem[A]	*>Patrem[A]	*>Patrem[A]
*>Incarnatus[B]	*>Incarnatus[B]	*>Incarnatus[B]	*>Incarnatus[B]
*clefF4	*clefGv2	*clefGv2	*clefG2
*k[]	*k[]	*k[]	*k[]
*>A	*>A	*>A	*>A
*M2/1	*M2/1	*M2/1	*M2/1
*met(C|)	*met(C|)	*met(C|)	*met(C|)
*	*	*	*rscale:1/2
=1-	=1-	=1-	=1-
!!section: Patrem
!!!OMD: Patrem
!	!	!	!LO:TX:Z=6:t=Canon&colon; In duplo
!	!	!	!LO:N:vis=0
0F	0F	0f	0r
=2	=2	=2	=2-
1D	1F	1f	0ryy
1C	1G	1e	.
=3	=3	=3	=3
!	!	!	!LO:N:vis=0
0F	0A	0c	0r
=4	=4	=4	=4-
0C	0G	1r	0ryy
.	.	1g	.
=5	=5	=5	=5
!	!	!	!LO:N:vis=0
1r	0F	[0a	[y0f\
[1F	.	.	.
=6	=6	=6	=6-
1F]	1r	1a]	0f]\yy
1F	1c	1a	.
=7	=7	=7	=7
1D	1d	0a	0f
1F	[1c	.	.
=8	=8	=8	=8-
0C	2c\]	1.g	0e
.	4B\	.	.
.	4A/	.	.
.	2c\	.	.
.	2d\	2f\	.
=9	=9	=9	=9
!	!	!	!LO:N:vis=0
1r	1e	1g	[y0c
[1F	1f	1a	.
=10	=10	=10	=10-
1F]	1A	1f	0c]yy
1E	1G	1g	.
=11	=11	=11	=11
1F	1A	1c	0r
1D	1F	[1f	.
=12	=12	=12	=12-
0C	0G	1f]	0g
.	.	1e	.
=13	=13	=13	=13
!	!	!	!LO:N:vis=0
1r	0F	0f	[y0a
[1F	.	.	.
=14	=14	=14	=14-
2F\]	1c	1r	0a]yy
2E\	.	.	.
1D	1d	1f	.
=15	=15	=15	=15
2C/	2e\	2e\	0a
1D	1f	1d	.
2E\	4e\	4c\	.
.	4d\	4B\	.
=16	=16	=16	=16-
1.F	2c\	1A	0a
.	2d\	.	.
.	1A	1c	.
2E\	.	.	.
=17	=17	=17	=17
!	!	!	!LO:N:vis=0
1D	1f	1d	[y0a
2C/	2e\	2e\	.
[2D\	[2d\	[2f\	.
=18	=18	=18	=18-
2D\]	2d\]	2f\]	0a]yy
2E\	2c\	2e\	.
1F	2.A/	2c\	.
.	.	2d\	.
.	4B\	.	.
=19	=19	=19	=19
!	!	!	!LO:N:vis=0
[0C	2.c\	2.e\	[y0g
.	4d\	4f\	.
.	4e\	2g\	.
.	4f\	.	.
.	[2g\	[2c\	.
=20	=20	=20	=20-
0C]	2g\]	2c\]	0g]yy
.	1f	4B\	.
.	.	4A/	.
.	.	2G/	.
.	2e\	2c\	.
=21	=21	=21	=21
1r	1f	1F	[0f
[1F	2c\	[1A	.
.	2c\	.	.
=22	=22	=22	=22-
1F]	2c\	1A]	0f_
.	2c\	.	.
1F	1d	1A	.
=23	=23	=23	=23
1F	2c\	1A	0f]
.	2B-i\	.	.
1F	1A	1A	.
=24	=24	=24	=24-
0G	1G	1B-i	0d
.	1B-	2G/	.
.	.	[2d\	.
=25	=25	=25	=25
!	!	!	!LO:N:vis=0
1F	1A	4d\]	[y0d
.	.	4c\	.
.	.	2A/	.
1G	2G/	2.B-i\	.
.	[2B-i\	.	.
.	.	4A/	.
=26	=26	=26	=26-
0D	2B-\]	1F	0d]yy
.	2A/	.	.
.	1F	1f	.
=27	=27	=27	=27
0C	0c	[0g	0e
=28	=28	=28	=28-
0G	1r	0g]	0d
.	1B	.	.
=29	=29	=29	=29
1A	1c	1e	0c
[1F	[1A	1f	.
=30	=30	=30	=30-
2F\]	2A/]	1c	[0f
2E\	2G/	.	.
2D\	1A	[1d	.
2C/	.	.	.
=31	=31	=31	=31
2BB-i/	1B-i	2d\]	0f]
2C/	.	2c\	.
1D	1F	2A/	.
.	.	2B\	.
=32	=32	=32	=32-
0C	0G	0c	0e
=33	=33	=33	=33
!	!	!	!LO:N:vis=0
1r	1F	2.A/	[y0f
.	.	4B-i\	.
1F	1A	2c\	.
.	.	[2d\	.
=34	=34	=34	=34-
1BB-i	1B-i	2d\]	0f]yy
.	.	4c\	.
.	.	4B-i\	.
1F	[1c	1A	.
=35	=35	=35	=35
!	!	!	!LO:N:vis=0
2E\	1c]	2G/	0r
1F	.	2F/	.
.	1d	1f	.
2BB-i/	.	.	.
=36	=36	=36	=36-
2C/	2c\	2e\	0ryy
1D	2A/	1f	.
.	1B-i	.	.
2E\	.	4e\	.
.	.	4d\	.
=37	=37	=37	=37
!	!	!	!LO:N:vis=0
1F	1A	[0c	[y0cc
1E	1G	.	.
=38	=38	=38	=38-
1.F	0A	0c]	0cc]yy
2G\	.	.	.
=39	=39	=39	=39
0A	0c	0F	0cc
=40	=40	=40	=40-
0D	[0d	0f	0a
=41	=41	=41	=41
!	!	!	!LO:N:vis=0
[0G	0d]	0g	[y0b-i
=42	=42	=42	=42-
0G]	0r	1d	0b-i]yy
.	.	1g	.
=43	=43	=43	=43
1.B-	0r	1f	0dd
.	.	1b-	.
2A\	.	.	.
=44	=44	=44	=44-
1F	0r	1a	1cc
1G	.	[1g	1b-i
=45	=45	=45	=45
!	!	!	!LO:N:vis=0
0D	1r	2g\]	[y0a
.	.	4f\	.
.	.	4e\	.
.	1d	2f\	.
.	.	[2d\	.
=46	=46	=46	=46-
1A	1e	2d\]	0a]yy
.	.	2c\	.
2r	2d\	2d\	.
[2D\	2d\	[2f\	.
=47	=47	=47	=47
4D\]	2d\	4f\]	0r
4E\	.	4g\	.
2F\	2c\	2a\	.
2G\	2B\	2d\	.
2C/	[2c\	2e\	.
=48	=48	=48	=48-
1.F	2c\]	0A	0a
.	2d\	.	.
.	2c\	.	.
4E\	[2d\	.	.
4D\	.	.	.
=49	=49	=49	=49
!	!	!	!LO:N:vis=1.
2G\	2d\]	0r	[y0g
2C/	2e\	.	.
2BB/	2d\	.	.
[2C/	[2e\	.	.
=50	=50	=50	=50-
2C/]	4e\]	1r	1g]yy
.	4d\	.	.
2E\	1c	.	.
1D	.	1F	1f
.	2B\	.	.
=51	=51	=51	=51
!	!	!	!LO:N:vis=0
0C	[0c	1.G	[y0e
.	.	[2A/	.
=52	=52	=52	=52-
1r	0c]	2A/]	0e]yy
.	.	4G/	.
.	.	4F/	.
1C	.	1G	.
=53	=53	=53	=53
!	!	!	!LO:N:vis=0
1D	1A	1.F	[y0f
1BB-i	1B-i	.	.
.	.	2G/	.
=54	=54	=54	=54-
1.F	1c	2.A/	0f]yy
.	.	4B\	.
.	1A	2c\	.
4E\	.	[2d\	.
4D\	.	.	.
=55	=55	=55	=55
1G	1B	2d\]	0g
.	.	2.e\	.
1C	[1c	.	.
.	.	4d\	.
.	.	4c\	.
.	.	4B\	.
=56	=56	=56	=56-
1.F	1c]	2A/	0a
.	.	2F/	.
.	1d	1f	.
4E\	.	.	.
4D\	.	.	.
=57	=57	=57	=57
1.G	1r	1.B-	[0b-
.	[1d	.	.
2A\	.	2c\	.
=58	=58	=58	=58-
1B-	1d]	2d\	0b-_
.	.	2G/	.
[1E-	[1e-	[1g	.
=59	=59	=59	=59
2E-\]	1e-]	0g]	0b-]
2F\	.	.	.
1G	1d	.	.
=60	=60	=60	=60-
1D	2r	2.f\	0a
.	2d\	.	.
.	.	4d\	.
2r	2c\	2e\	.
[2D\	[2d\	2f\	.
=61	=61	=61	=61
4D\]	1d]	2.F/	0a
4C/	.	.	.
4D\	.	.	.
4E\	.	4G/	.
2.F\	2c\	2.A/	.
.	2d\	.	.
4E\	.	4B\	.
=62	=62	=62	=62-
2C/	2e-i\	1c	1g
2E\	1c	.	.
1D	.	1d	1f
.	2B-i\	.	.
=63	=63	=63	=63
!	!	!	!LO:N:vis=0
[0C	2.e-\	2G/	[y0g
.	.	2.c\	.
.	4d\	.	.
.	4c\	.	.
.	4B-i\	4d\	.
.	[2c\	4e\	.
.	.	4f\	.
=64	=64	=64	=64-
0C]	2c\]	2g\	0g]yy
.	4B-i\	1f	.
.	4A/	.	.
.	1G	.	.
.	.	2e\	.
=65	=65	=65	=65
!	!	!	!LO:N:vis=1.
1r	0F	0f	[y0a
[1F	.	.	.
=66	=66	=66	=66-
1F]	1c	1r	1a]yy
1D	1d	1f	1b
=67	=67	=67	=67
1C	1e	1g	0cc
[1F	[1f	[1a	.
=68	=68	=68	=68-
2F\]	2f\]	2a\]	0cc
2G\	2e\	2g\	.
1A	1c	1e	.
=69	=69	=69	=69
0B-	1r	1.d	0dd
.	[1f	.	.
.	.	2c\	.
=70	=70	=70	=70-
1F	1f]	1A	1cc
[1G	[1d	1G	[1b-i
=71	=71	=71	=71
2G\]	1d]	1.d	1b-]
2F\	.	.	.
[1D	[1f	.	1a
.	.	2c\	.
=72	=72	=72	=72-
2D\]	2f\]	0A	[0a
2E\	2e\	.	.
1F	2c\	.	.
.	[2d\	.	.
=73	=73	=73	=73
1D	2d\]	1r	0a]
.	2c\	.	.
1F	2A/	1A	.
.	[2c\	.	.
=74	=74	=74	=74-
1E	2c\]	1e	0g
.	4B\	.	.
.	4A/	.	.
2r	1B	2d\	.
2E\	.	2e\	.
=75	=75	=75	=75
!	!	!	!LO:N:vis=0
1F	1A	2c\	[y0a
.	.	2.f\	.
2D\	1A	.	.
.	.	4g\	.
[2F\	.	[2a\	.
=76	=76	=76	=76-
2F\]	1c	2a\]	0a]yy
2G\	.	4g\	.
.	.	4f\	.
1A	1c	1e	.
=77	=77	=77	=77
1D	1d	1r	0r
1G	1B	1d	.
=78	=78	=78	=78-
1.F	1c	1.f	0r
.	1d	.	.
4E\	.	2g\	.
4D\	.	.	.
=79	=79	=79	=79
2F\	2c\	1a	0a
2D\	2d\	.	.
2.F\	2c\	2.A/	.
.	[2d\	.	.
4E\	.	4B\	.
=80	=80	=80	=80-
2C/	4d\]	1c	1g
.	4c\	.	.
2E\	1c	.	.
1D	.	1d	1f
.	2B\	.	.
=81	=81	=81	=81
!	!	!	!LO:N:vis=0
0C	0c	1G	[y0e
.	.	[1g	.
=82	=82	=82	=82-
2r	0r	2g\]	0e]yy
1c	.	2g\	.
.	.	1g	.
2c\	.	.	.
=83	=83	=83	=83
!	!	!	!LO:N:vis=0
2A\	1r	1a	[y0c
2A\	.	.	.
1c	2e\	1g	.
.	2f\	.	.
=84	=84	=84	=84-
1C	1g	1e	0c]yy
[1F	[1a	2r	.
.	.	[2f\	.
=85	=85	=85	=85
1F]	1a]	2f\]	0r
.	.	2d\	.
1C	1g	2e\	.
.	.	2f\	.
=86	=86	=86	=86-
2r	1e	2g\	0c
2.c\	.	1e	.
.	1r	.	.
4B\	.	.	.
2A\	.	2f\	.
=87	=87	=87	=87
2G\	0r	2g\	0d
2F\	.	1a	.
1B-i	.	.	.
.	.	2g\	.
=88	=88	=88	=88-
1A	0r	0a	0f
1F	.	.	.
=89	=89	=89	=89
!	!	!	!LO:N:vis=0
2.c\	1r	0r	[y0e
4B\	.	.	.
4A\	2r	.	.
4G\	.	.	.
[2A\	[2c\	.	.
=90	=90	=90	=90-
1A]	2c\]	0r	0e]yy
.	2A/	.	.
2G\	2B\	.	.
2A\	2c\	.	.
=91	=91	=91	=91
2.D\	1d	2r	0f
.	.	2.A/	.
4E\	.	.	.
2F\	2c\	.	.
.	.	4G/	.
2D\	[2d\	2A/	.
=92	=92	=92	=92-
1G	1d]	2B\	[0g
.	.	2G/	.
1C	1e	2.c\	.
.	.	4d\	.
=93	=93	=93	=93
0r	2r	4e\	1g]
.	.	4f\	.
.	2e\	2g\	.
.	2.d\	2a\	1f
.	.	[2b-i\	.
.	4c\	.	.
=94	=94	=94	=94-
0r	2A/	4b-\]	1e
.	.	4a\	.
.	2c\	2a\	.
.	1B-i	2f\	1d
.	.	2g\	.
=95	=95	=95	=95
!	!	!	!LO:N:vis=0
2r	1A	2r	[y0e
1A	.	1c	.
.	1r	.	.
2G\	.	2B\	.
=96	=96	=96	=96-
2A\	1r	2c\	0e]yy
2G\	.	2B\	.
2E\	2r	1G	.
[2G\	[2B-\	.	.
=97	=97	=97	=97
2G\]	2B-\]	0r	0d
2F\	2A/	.	.
2G\	2B-i\	.	.
2F\	2A/	.	.
=98	=98	=98	=98-
2D\	1F	2r	[0f
1F	.	1A	.
.	1r	.	.
2E\	.	2G/	.
=99	=99	=99	=99
1D	2r	2A/	1f]
.	2F/	2B\	.
1C	2G/	1c	1e
.	[2A/	.	.
=100	=100	=100	=100-
1D	4A/]	1F	0d
.	4G/	.	.
.	2A/	.	.
1BB-i	2B-i\	1D	.
.	2G/	.	.
=101	=101	=101	=101
!	!	!	!LO:N:vis=0
[0AA	[0A	2E/	[y0c
.	.	2.c\	.
.	.	4B\	.
.	.	[2A/	.
=102	=102	=102	=102-
0AA]	0A]	2A/]	0c]yy
.	.	4G/	.
.	.	4F/	.
.	.	1E	.
=103	=103	=103	=103
!	!	!	!LO:N:vis=0
1r	1r	1r	[y0d
1D	1A	1F	.
=104	=104	=104	=104-
2D\	2A/	2F/	0d]yy
1D	1A	1F	.
2D\	2A/	2F/	.
=105	=105	=105	=105
!	!	!	!LO:N:vis=0
2C/	1c	2G/	[y0e
2AA/	.	1A	.
1E	1B	.	.
.	.	2G#i/	.
=106	=106	=106	=106-
1AA	0A	2.A/	0e]yy
.	.	4B\	.
2r	.	2.c\	.
[2A\	.	.	.
.	.	4d\	.
=107	=107	=107	=107
2A\]	2r	2.e\	0r
2A\	2c\	.	.
.	.	4f\	.
2G\	2B\	2g\	.
2A\	2c\	2e\	.
=108	=108	=108	=108-
2F\	2A/	2.a\	0f
1D	2.d\	.	.
.	.	4g\	.
.	.	4f\	.
.	4c\	4e\	.
2D\	4B\	4d\	.
.	4A/	4c\	.
=109	=109	=109	=109
2.E\	2.G/	2B\	0g
.	.	2e\	.
4F\	4A/	.	.
2G\	2B\	2d\	.
2C/	[2c\	2e\	.
=110	=110	=110	=110-
2.F\	2c\]	2c\	0a
.	4B\	2f\	.
4G\	4A/	.	.
2A\	2c\	2e\	.
2D\	2d\	2f\	.
=111	=111	=111	=111
!	!	!	!LO:N:vis=1.
2.G\	4G/	2d\	[y0b-
.	4A/	.	.
.	4B-i\	2g\	.
4A\	4c\	.	.
2B-\	2d\	2f\	.
[2E-\	[2e-\	[2g\	.
=112	=112	=112	=112-
4E-\]	4e-\]	1g]	1b-]yy
4F\	4d\	.	.
2G\	2B-i\	.	.
2A\	2c\	2e\	1a
2D\	2d\	2f\	.
=113	=113	=113	=113
2G\	2B-i\	2d\	1g
2C/	2c\	2e\	.
2F\	2A/	2c\	1f
[2BB-i/	[2B-\	[2d\	.
=114	=114	=114	=114-
4BB-/]	1B-]	1d]	[0f
4C/	.	.	.
4D\	.	.	.
4E\	.	.	.
2F\	2A/	2c\	.
[2BB-i/	[2B-i\	[2d\	.
=115	=115	=115	=115
2BB-/]	2B-\]	2d\]	0f]
2.F\	2A/	1c	.
.	1F	.	.
4E\	.	.	.
2D\	.	2B\	.
=116	=116	=116	=116-
2.C/	0G	[0cl	0e
4BB/	.	.	.
1C	.	.	.
=117	=117	=117	=117
*^	*	*	*
0FFl\	0Fl/	0Fl	0c]	0fl
*v	*v	*	*	*
*	*	*	*rscale:1
!!LO:LB:i:g=z
=118||	=118||	=118||	=118||
*>B	*>B	*>B	*>B
!!section: Et incarnatus est
!!!OMD: Et incarnatus est
*M2/1	*M2/1	*M2/1	*M2/1
*met(C|)	*met(C|)	*met(C|)	*met(C|)
1F	0r	1f	0r
2F\	.	2c\	.
2F\	.	[2d\	.
=119	=119	=119	=119
1F	0r	4d\]	0r
.	.	4c\	.
.	.	2A/	.
1G	.	2.B-i\	.
.	.	4A/	.
=120	=120	=120	=120
2.A\	1F	4F/	0f
.	.	4G/	.
.	.	4A/	.
4G\	.	4B\	.
4F\	2F/	2c\	.
4E\	.	.	.
2D\	2F/	2d\	.
=121	=121	=121	=121
2F\	1F	2A/	1f
2D\	.	2B\	.
1C	1G	[1c	1e
=122	=122	=122	=122
1r	2.A/	2c\]	0c
.	.	4B\	.
.	4B\	4A/	.
1AA	4c\	2.e\	.
.	4d\	.	.
.	[2c\	.	.
.	.	4f\	.
=123	=123	=123	=123
1E	2c\]	4g\	1r
.	.	4a\	.
.	4B\	2.g\	.
.	4A/	.	.
1E	1B	.	1g
.	.	4f\	.
.	.	4e\	.
.	.	4d\	.
=124	=124	=124	=124
1.F	1A	1c	0a
.	2r	1f	.
4E\	2d\	.	.
4D\	.	.	.
=125	=125	=125	=125
2A\	2c\	2e\	1a
2D\	2d\	2f\	.
2A\	2c\	2e\	1a
2D\	[2d\	[2f\	.
=126	=126	=126	=126
1.F	2d\]	2f\]	0a
.	4c\	4e\	.
.	4B\	4d\	.
.	2A/	2c\	.
4E\	2d\	2f\	.
4D\	.	.	.
=127	=127	=127	=127
2G\	2B\	2d\	0g
2C/	2c\	2e\	.
2G\	2B\	2d\	.
2C/	[2c\	2e\	.
=128	=128	=128	=128
1.F	4c\]	2.A/	[0f
.	4B\	.	.
.	4A/	.	.
.	4G/	4B\	.
.	2A/	2c\	.
4E\	2B-i\	2d\	.
4D\	.	.	.
=129	=129	=129	=129
2F\	2A/	2c\	1f]
2BB-i/	1B-i	2d\	.
[1B-i	.	2G/	1d
.	[2G/	[2d\	.
=130	=130	=130	=130
2B-\]	1G]	2d\]	0d
4A\	.	4c\	.
4G\	.	4B-i\	.
2F\	2A/	2A/	.
2G\	2B-i\	2G/	.
=131	=131	=131	=131
2r	1c	1g	1e
2C/	.	.	.
2.D\	1F	[1f	1d
4E\	.	.	.
=132	=132	=132	=132
1F	1A	2f\]	1c
.	.	2e\	.
1BB-i	1B-i	1d	[1f
=133	=133	=133	=133
0C	0G	1c	1f]
.	.	2r	1e
.	.	2c\	.
=134	=134	=134	=134
2r	1F	2c\	0f
2c\	.	2A/	.
2c\	2r	2F/	.
2A\	2c\	2c\	.
=135	=135	=135	=135
2F\	2c\	2A/	0r
2c\	2A/	2F/	.
2A\	2F/	2.A/	.
2F\	2c\	.	.
.	.	4B\	.
=136	=136	=136	=136
2.A\	2A/	1c	0cc
.	2F/	.	.
4B\	.	.	.
1c	2.A/	1F	.
.	4B\	.	.
=137	=137	=137	=137
1F	1c	2r	1cc
.	.	2f\	.
2r	1F	2f\	1a
2F\	.	2f\	.
=138	=138	=138	=138
2G\	0r	2d\	0b-i
2G\	.	2d\	.
2G\	.	2.g\	.
2G\	.	.	.
.	.	4f\	.
=139	=139	=139	=139
2.B-\	0r	2.d\	1dd
4A\	.	4e\	.
1F	.	1f	2cc\
.	.	.	2b-i\
=140	=140	=140	=140
2r	2r	2r	0a
1F	1c	1f	.
2F\	2c\	2f\	.
=141	=141	=141	=141
2F\	2c\	2f\	1r
2F\	2c\	2f\	.
2F\	2c\	2f\	1a
2F\	2c\	2f\	.
=142	=142	=142	=142
[0C	0c	3%2eV	1.g
.	.	3d\Z	.
.	.	3.c\V	.
.	.	6B\	2f/
.	.	3A/Z	.
=143	=143	=143	=143
0C]	1r	2G/	1e
.	.	2F/	.
.	1c	1G	1e
=144	=144	=144	=144
0r	2A/	0r	0f
.	2A/	.	.
.	1B-i	.	.
=145	=145	=145	=145
0r	1G	1r	1g
.	2r	1f	1a
.	2F/	.	.
=146	=146	=146	=146
1r	2B-i\	1.d	[0b-i
.	2B-i\	.	.
1G	2.B-i\	.	.
.	.	2d\	.
.	4G/	.	.
=147	=147	=147	=147
2E\	1G	1e	1b-]
2E\	.	.	.
1F	1r	1c	1a
=148	=148	=148	=148
1D	0r	2r	1a
.	.	2f\	.
2r	.	2e\	2g/
2D\	.	2d\	2f/
=149	=149	=149	=149
2C/	0r	2e\	0g
2D\	.	4d\	.
.	.	4c\	.
1E	.	1B	.
=150	=150	=150	=150
1AA	1.c	0A	1.a
[1A	.	.	.
.	2d\	.	2b\
=151	=151	=151	=151
2A\]	1e	1r	1cc
4G\	.	.	.
4F\	.	.	.
1E	1e	1g	1cc
=152	=152	=152	=152
1D	1f	1a	1dd
1r	2e\	2g\	2cc\
.	[2d\	[2f\	[2b\
=153	=153	=153	=153
0r	2d\]	2f\]	2b\]
.	4c\	4e\	2a/
.	4B-i\	4d\	.
.	2c\	2e\	[1a
.	[2d\	[2f\	.
=154	=154	=154	=154
0r	4d\]	4f\]	1a]
.	4c\	4e\	.
.	4B-i\	4d\	.
.	4A/	4c\	.
.	1B-i	1d	1g
=155	=155	=155	=155
1r	1A	1e	0a
2r	2r	2r	.
2D\	2A/	2f\	.
=156	=156	=156	=156
2C/	2c\	2e\	0r
2D\	2A/	2f\	.
2AA/	2c\	2e\	.
[2D\	[2A/	[2f\	.
=157	=157	=157	=157
2D\]	4A/]	2f\]	1.a
.	4B\	.	.
2C/	2c\	2e\	.
1D	2.F/	1d	.
.	.	.	4g/
.	4G/	.	4f/
=158	=158	=158	=158
2AA/	2A/	1c	0e
2AA/	2c\	.	.
2E\	1B	2r	.
2E\	.	2g\	.
=159	=159	=159	=159
2F\	1A	2a\	0c
2F\	.	2f\	.
1C	1r	2g\	.
.	.	2e\	.
=160	=160	=160	=160
1D	0r	2f\	1r
.	.	2d\	.
1AA	.	1e	1c
=161	=161	=161	=161
0r	2r	1d	1d
.	2G/	.	.
.	2A/	1r	1f
.	2B\	.	.
=162	=162	=162	=162
0r	1c	2r	0e
.	.	2A/	.
.	1r	2B\	.
.	.	2c\	.
=163	=163	=163	=163
2r	0r	1d	1f
2D\	.	.	.
2E\	.	1r	[1g
2F\	.	.	.
=164	=164	=164	=164
2G\	2r	2r	2g/]
2D\	2d\	2f\	2f/
2E\	2c\	2g\	2e/
2F\	2A/	[2a\	2d/
=165	=165	=165	=165
1E	1B	4a\]	0e
.	.	4f#i\	.
.	.	2g#i\	.
1AA	1A	1a	.
=166	=166	=166	=166
2r	2r	2r	1d
2D\	2A/	2a\	.
2D\	2d\	2a\	[1f
2D\	2d\	2a\	.
=167	=167	=167	=167
2F\	1c	2a\	2f/]
2C/	.	2g\	2e/
1D	2.F/	1f	1d
.	4G/	.	.
=168	=168	=168	=168
1AA	0A	0e	0c
1AA	.	.	.
=169	=169	=169	=169
1D	1r	1.A	0d
1D	1F	.	.
.	.	2B\	.
=170	=170	=170	=170
0C	1G	1c	0e
.	1G	1c	.
=171	=171	=171	=171
1.F	2.A/	1c	1r
.	4B\	.	.
.	2c\	1A	1f
4E\	2d\	.	.
4D\	.	.	.
=172	=172	=172	=172
2E\	2B\	1G	1g
2C/	2c\	.	.
1F	2A/	2F/	1a
.	[2d\	[2f\	.
=173	=173	=173	=173
1BB-i	4d\]	4f\]	1.b-
.	4c\	4e\	.
.	4B-i\	4d\	.
.	4A/	4c\	.
2r	2B-i\	2d\	.
2F\	[2c\	2A/	2a/
=174	=174	=174	=174
2E\	4c\]	1.c	2g/
.	4B-i\	.	.
2.F\	4A/	.	2f/
.	4G/	.	.
.	2A/	.	[1f
4E\	.	.	.
4D\	[2B-i\	[2d\	.
4C/	.	.	.
=175	=175	=175	=175
2BB-i/	4B-i\]	2d\]	1f]
.	4A/	.	.
2D\	4G/	2B-i\	.
.	4F/	.	.
1C	1G	1c	1e
=176	=176	=176	=176
0r	2F/	2A/	[0f
.	2B-i\	2d\	.
.	2A/	2c\	.
.	[2d\	[2f\	.
=177	=177	=177	=177
0r	4d\]	4f\]	0f]
.	4c\	4e\	.
.	2A/	2c\	.
.	1B-i	1d	.
=178	=178	=178	=178
*M3/1	*M3/1	*M3/1	*M3/1
*met(3)	*met(3)	*met(3)	*met(3)
0F	0A	0c	0.r
1D	1B	1d	.
=179	=179	=179	=179
1.C	1.c	1.e	0.r
2C/	2c\	2e\	.
1C	1c	1e	.
=180	=180	=180	=180
1.F	0c	1A	0.f
.	.	[0a	.
2E\	.	.	.
2.D\	1d	.	.
4C/	.	.	.
=181	=181	=181	=181
1D	1d	0a]	1f
1AA	1c	.	0e
1E	1B	1g	.
=182	=182	=182	=182
0.AA	0A	1a	0.c
.	.	1e	.
.	1A	1f	.
=183	=183	=183	=183
0E	0B	1.g	1r
.	.	.	0g
.	.	2f\	.
1E	1c	2e\	.
.	.	2d\	.
=184	=184	=184	=184
0F	1A	1c	0.a
.	1.f	0d	.
[1D	.	.	.
.	2e\	.	.
=185	=185	=185	=185
1D]	0d	1f	1a
0A	.	0e	0a
.	1c#i	.	.
=186	=186	=186	=186
0D	0d	0d	0.a
1D	1r	1r	.
=187	=187	=187	=187
0E	0B	1G	0.g
.	.	1G	.
1E	1c	1G	.
=188	=188	=188	=188
1.D	1.d	1A	0.f
.	.	1d	.
2E\	2c\	.	.
1F	1A	1c	.
=189	=189	=189	=189
1BB-	1.B-	1f	1d
1BB-	.	1B-i	0d
.	2A/	.	.
1BB-	2G/	1d	.
.	2F/	.	.
=190	=190	=190	=190
1C	1E	1c	1e
1BB-i	0F	1d	1d
1F	.	1A	1c
=191	=191	=191	=191
1D	1F	1B	0f
0C	0G	0c	.
.	.	.	1e
=192	=192	=192	=192
1c	0F	0A	0.f
1c	.	.	.
1A	1r	1F	.
=193	=193	=193	=193
1.F	0A	0c	0.r
2E\	.	.	.
1D	1B	1d	.
=194	=194	=194	=194
1C	0c	1e	0.cc
1.F	.	0f	.
.	[1c	.	.
2G\	.	.	.
=195	=195	=195	=195
1A	1c]	1e	1cc
1F	0c	1.f	0a
1A	.	.	.
.	.	2e\	.
=196	=196	=196	=196
0G	0d	0g	0b
1G	1B	1g	1dd
=197	=197	=197	=197
1.A	0c	0e	2cc\
.	.	.	2b\
.	.	.	0a
2G\	.	.	.
2F\	1c	[1f	.
2E\	.	.	.
=198	=198	=198	=198
1D	0d	1f]	1r
1F	.	1f	1a
1G	1B	1d	[1g
=199	=199	=199	=199
0C	0c	1e	2g/]
.	.	.	2f/
.	.	1c	1e
1C	1c	1G	1e
=200	=200	=200	=200
1BB-i	0d	1.B-i	0.f
1.B-i	.	.	.
.	.	2c\	.
.	[1B-i	1d	.
2A\	.	.	.
=201	=201	=201	=201
1G	1B-]	1e	1g
0F	0c	0f	0a
=202	=202	=202	=202
1.BB-i	0d	[0.f	0.b-i
2C/	.	.	.
2D\	1d	.	.
2E\	.	.	.
=203	=203	=203	=203
1F	1c	0f]	1a
1D	1d	.	1a
1G	1B	1d	2g/
.	.	.	2f/
=204	=204	=204	=204
1E	1G	0e	0g
1C	0c	.	.
1F	.	1A	[1a
=205	=205	=205	=205
1D	1d	[0.a	2a/]
.	.	.	2b\
0A	0e	.	1cc
.	.	.	1cc
=206	=206	=206	=206
1D	1f	1a]	1dd
1E	1e	1g	2cc\
.	.	.	1b
1F	1c	1a	.
.	.	.	2a/
=207	=207	=207	=207
1D	1d	1f	0a
0E	0B	1g	.
.	.	1e	1g#i
=208	=208	=208	=208
1AA	0A	1c	0.a
1.D	.	1.f	.
.	1d	.	.
2E\	.	2g\	.
=209	=209	=209	=209
1F	1c	1a	0.r
1D	1d	1f	.
1E	1B	1g	.
=210	=210	=210	=210
1.F	0A	0c	0a
2E\	.	.	.
1D	1A	1d	2g/
.	.	.	2f/
=211	=211	=211	=211
0C	0c	1e	0.e
.	.	1.g	.
1E	1B	.	.
.	.	2f\	.
=212	=212	=212	=212
1F	1A	0f	0c
0C	0G	.	.
.	.	1e	1r
=213	=213	=213	=213
1.F	0F	1f	1c
.	.	1r	1d
2E\	.	.	.
1D	1r	1F	1f
=214	=214	=214	=214
1C	0c	1G	0e
1AA	.	1A	.
1D	1d	1F	1f
=215	=215	=215	=215
1.C	1.e	1c	1.g
.	.	1r	.
2D\	2d\	.	2f/
1E	2c\	1g	2e/
.	2B\	.	2d/
=216	=216	=216	=216
0AA	0c	0a	0e
[1D	1d	1a	1d
=217	=217	=217	=217
2D\]	1d	0a	1.f
2E\	.	.	.
1F	1c	.	.
.	.	.	2e/
1G	1B	1g	1d
=218	=218	=218	=218
1A	0A	0e	0.c
1r	.	.	.
1A	1A	1f	.
=219	=219	=219	=219
1G	1.B	1.g	0.d
2G\	.	.	.
1G	2B\	2g\	.
.	2B\	2g\	.
2G\	2B\	2g\	.
=220	=220	=220	=220
0C	1.c	2.g\	0e
.	.	4f\	.
.	.	2e\	.
.	2B\	2d\	.
1C	2A/	2c\	1r
.	2G/	2B\	.
=221	=221	=221	=221
1D	1F	1A	1f
1E	1B-i	1G	1g
1F	1A	1c	1a
=222	=222	=222	=222
1G	1.d	1B-	1.b-
1D	.	1f	.
.	2c\	.	2a/
1E	1B-i	1e	2g/
.	.	.	2f/
=223	=223	=223	=223
1F	1A	1.c	0f
0C	0G	.	.
.	.	2B\	.
.	.	1c	1e
=224	=224	=224	=224
*M2/1	*M2/1	*M2/1	*
*met(C|)	*met(C|)	*met(C|)	*
!	!	!	!LO:N:vis=0.
1.F	1F	1.A	[0f
.	1r	.	.
2G\	.	4G/	.
.	.	4F/	.
=225	=225	=225	=225
!	!	!	!LO:N:vis=0.
2A\	1c	1F	0f]
2F\	.	.	.
2B-i\	2d\	1f	.
[2A\	[2c\	.	.
=226	=226	=226	=226
*	*	*	*M4/1
*	*	*	*met(Cr)
*	*	*	*rscale:2
4A\]	2c\]	2e\	0r
4G\	.	.	.
1F	4B-i\	2f\	.
.	4A/	.	.
.	1G	1g	.
2E\	.	.	.
=227	=227	=227	=227
1F	2F/	1a	1f
.	2c\	.	.
2D\	2d\	2f\	2f
2E\	[2c\	[2g\	2e
=228	=228	=228	=228
1F	2c\]	4g\]	1c
.	.	4f\	.
.	4B-i\	1f	.
.	4A/	.	.
1C	1G	.	2r
.	.	2e\	2g
=229	=229	=229	=229
2r	2F/	0f	1a
2F\	2c\	.	.
2D\	2d\	.	2a
[2F\	[2c\	.	2a
=230	=230	=230	=230
4F\]	2c\]	2r	1a
4E\	.	.	.
2F\	2A/	2f\	.
2G\	2B-i\	2d\	1g
2C/	2c\	2e\	.
=231	=231	=231	=231
1F	2F/	2.A/	1.f
.	2c\	.	.
.	.	4G/	.
2D\	2.d\	2A/	.
[2G\	.	2B-i\	2d
.	4c\	.	.
=232	=232	=232	=232
4G\]	4B-i\	0G	1d
4F\	4A/	.	.
4E\	2B-i\	.	.
4D\	.	.	.
2C/	2c\	.	2e
2G\	2B-i\	.	2d
=233	=233	=233	=233
2E\	2c\	2r	2c
2F\	2A/	1.c	1f
1C	1G	.	.
.	.	.	2e
=234	=234	=234	=234
0r	2F/	2A/	1f
.	2c\	2F/	.
.	2d\	2B-i\	1r
.	[2c\	2A/	.
=235	=235	=235	=235
0r	4c\]	1F	1cc
.	4B-i\	.	.
.	4A/	.	.
.	4G/	.	.
.	2F/	2r	2cc
.	2A/	2c\	2a
=236	=236	=236	=236
1r	1G	2d\	1b-i
.	.	2e\	.
2r	1F	[1f	2dd
[2F\	.	.	4cc\
.	.	.	4b-i\
=237	=237	=237	=237
4F\]	2r	2f\]	1a
4G\	.	.	.
2A\	2c\	2e\	.
2D\	2d\	1f	2r
2F\	[2c\	.	2a
=238	=238	=238	=238
0C	2c\]	2.e\	2.g
.	2A/	.	.
.	.	4f\	4f/
.	1G	2g\	2e
.	.	2c\	2e
=239	=239	=239	=239
1D	1F	2A/	1f
.	.	2B\	.
1C	2r	1c	2g
.	2c\	.	2a
=240	=240	=240	=240
2.G\	4d\	2r	1.b-i
.	4c\	.	.
.	4B-i\	1g	.
4F\	4A/	.	.
2G\	2B-i\	.	.
2A\	2c\	2e\	2a
=241	=241	=241	=241
2F\	2A/	2f\	2a
2G\	2B-i\	2d\	4g/
.	.	.	4f/
1C	1G	1e	1g
=242	=242	=242	=242
0r	0F	1A	2.a
.	.	.	4b-i\
.	.	[1f	2cc
.	.	.	2cc
=243	=243	=243	=243
0r	0r	2f\]	2dd
.	.	2e\	4cc\
.	.	.	2b-i
.	.	2d\	.
.	.	.	4a/
.	.	2c\	[2a
=244	=244	=244	=244
1r	1r	1B-i	2a]
.	.	.	2g
2r	2r	2A/	1a
2F\	2c\	[2F/	.
=245	=245	=245	=245
2D\	2d\	4F/]	1r
.	.	4G/	.
1F	2c\	4A/	.
.	.	4B\	.
.	2A/	2c\	2.a
2BB-i/	2B-i\	2d\	.
.	.	.	8g/
.	.	.	8f/
=246	=246	=246	=246
1C	1G	1.c	1e
2r	2F/	.	1c
2F\	2c\	4B-i\	.
.	.	4A/	.
=247	=247	=247	=247
2D\	2d\	2B-i\	2r
1F	2c\	1A	2c
.	2A/	.	2d
2BB-i/	2B-i\	2d\	2f
=248	=248	=248	=248
1C	1G	1.c	1e
2r	2F/	.	2f
2C/	2c\	4B-i\	[2g
.	.	4A/	.
=249	=249	=249	=249
2G\	2d\	2B-i\	4g/]
.	.	.	4f/
2.C/	1.c	2c\	4e/
.	.	.	4d/
.	.	2.G/	1e
4BB-i/	.	.	.
2C/	.	.	.
.	.	4A/	.
=250	=250	=250	=250
4BB-i/	2.d\	2.B-i\	2d
4C/	.	.	.
4D\	.	.	2.f
4E\	4c\	4A/	.
2F\	2A/	2F/	.
.	.	.	4e/
2BB-/	2B-i\	[2f\	2d
=251	=251	=251	=251
2C/	1G	2f\]	1c
2E\	.	2e\	.
1D	1F	2f\	1d
.	.	2F/	.
=252	=252	=252	=252
1C	2r	2.G/	1e
.	2c\	.	.
.	.	4A/	.
2BB-i/	2d\	2B-i\	2r
2F\	[2c\	2A/	2f
=253	=253	=253	=253
2C/	2c\]	2e\	2g
2F\	4B-i\	2f\	2a
.	4A/	.	.
2G\	2G/	2d\	2.b-
[2E-\	[2B-\	[2e-i\	.
.	.	.	4a/
=254	=254	=254	=254
2E-\]	2B-\]	4e-\]	4g/
.	.	4d\	4f/
2F\	2A/	2.c\	1f
1C	1G	.	.
.	.	4B\	.
.	.	2c\	2e
=255	=255	=255	=255
[0Fl	[0Fl	2A/	[0fl
.	.	1d	.
.	.	2c\	.
=256	=256	=256	=256
0F]	0F]	0cl	0f]
==	==	==	==
*-	*-	*-	*-
!!!RDF**kern: %=rational rhythm
!!!rscale-alt: 1/4
!!!RDF**kern: l=long note in original notation
!!!RDF**kern: i=editorial accidental
!!!ENC: Jesse Rodin; Victoria Chang 2011/04/13
!!!END: 2011/04/13/
!!!EED:	Jesse Rodin
!!!EEV:	2011/09/19/
!!attribution-level@Jos: 1 (secure)
!!!ONB:	Translated from MusicXML and edited on 2011/09/18/ by Craig Sapp
!!muse2ps: T^@{OPR}^u^@{ONM}{. }@{OTL}^C^@{COM}\n@{SCT}^i2I100v95,90,85,150Q16
